X:18506
T:Walzer-Trio - Walzer/Waltz/Valse
C:J. Sommerhuber,1890
S: 5.Spielheft für Okarina, Brigitte Dumfart, Oberoesterreichisches Volksliedwerk 
A:Esternberg
Z:abc transcription Simon Wascher
N:please mail errors to simon.wascher@chello.at
M:3/4
L:1/4
K:D
FG|AdF|AdF|A3|AAd|
c3|cGe|d3|dFG|
AdF|AdF|A3|AAd|
c2G|B2A|F2d/d/|d:|
|:zf|e2c|B2G|F2A|d2F|
G2A|c2G|F/A/dd|A/d/ff|
e2c|B2G|F2A|d2F|
G/A/cc|e>dd|f>ee|d:|
|:zF/F/|F2A/A/|A2d/d/|cce|
A3|cce|A2c|ddf|
A2F/F/|F2A/A/|A2d/d/|cce|
A3|A2B|Adf|e>cc|d:|


